actions/22x22-light/distribute-vertical-baseline.svg

<svg xmlns="http://www.w3.org/2000/svg" viewBox="0 0 22 22">
 <defs id="defs3051">
   <style type="text/css" id="current-color-scheme">
     .ColorScheme-Text {
       color:#4d4d4d;
     }
     </style>
 </defs>
   <path
      style="fill:currentColor;fill-opacity:1;stroke:none"
      d="m13.03125 3c0 1.8985 1.341099 3.4706469 2.349609 4.4355469-1.19879 1.2177-2.677009 1.7663687-5.380859 2.2304687l.277344 1.3339844c6.02737-1.0344 8.722656-4.8245 8.722656-8h-1.476562c0 .9235-.466475 2.7059781-1.265626 3.3925781-.81579-.7731-1.799919-1.9681937-2.037109-3.3710937zm-8.03125 4-2 3h4zm11.130859 4.970703c-1.172738.02548-2.07396.215593-2.728515.496094l.36914 1.263672c.313637-.102059 1.499852-.458985 2.195313-.458985h.095703c.968193.03822 1.037109.368723 1.037109 1.146485v.30664l-.505859.076172c-2.345489.318762-3.599609.586483-3.599609 2.269531 0 1.173035.913577 1.900391 2.236328 1.900391.913646 0 1.513319-.35729 2.126953-.841797l.191406.714844h1.445313v-4.71875c0-1.440781-1.06283-2.154297-2.699219-2.154297zm.96875 3.748047v1.568359c-.504542.318763-.886459.548829-1.541015.548829-.586368 0-.873047-.345572-.873047-.830079 0-.918027.858184-1.070687 1.908203-1.210937zm-14.099609.28125 2 3 2-3z"
      class="ColorScheme-Text" />
</svg>

<svg xmlns="http://www.w3.org/2000/svg" viewBox="0 0 22 22">
  <defs id="defs3051">
    <style type="text/css" id="current-color-scheme">
      .ColorScheme-Text {
        color:#4d4d4d;
      }
      </style>
  </defs>
 <path 
    style="fill:currentColor;fill-opacity:1;stroke:none" 
    d="M 13.03125 3 C 13.03125 4.8985 14.372349 6.4706469 15.380859 7.4355469 C 14.182069 8.6532469 12.70385 9.2019156 10 9.6660156 L 10.277344 11 C 16.304714 9.9656 19 6.1755 19 3 L 17.523438 3 C 17.523438 3.9235 17.056963 5.7059781 16.257812 6.3925781 C 15.442022 5.6194781 14.457893 4.4243844 14.220703 3.0214844 L 13.03125 3 z M 5 7 L 3 10 L 7 10 L 5 7 z M 16.130859 11.970703 C 14.958121 11.996183 14.056899 12.186296 13.402344 12.466797 L 13.771484 13.730469 C 14.085121 13.62841 15.271336 13.271484 15.966797 13.271484 L 16.0625 13.271484 C 17.030693 13.309704 17.099609 13.640207 17.099609 14.417969 L 17.099609 14.724609 L 16.59375 14.800781 C 14.248261 15.119543 12.994141 15.387264 12.994141 17.070312 C 12.994141 18.243347 13.907718 18.970703 15.230469 18.970703 C 16.144115 18.970703 16.743788 18.613413 17.357422 18.128906 L 17.548828 18.84375 L 18.994141 18.84375 L 18.994141 14.125 C 18.994141 12.684219 17.931311 11.970703 16.294922 11.970703 L 16.130859 11.970703 z M 17.099609 15.71875 L 17.099609 17.287109 C 16.595067 17.605872 16.21315 17.835938 15.558594 17.835938 C 14.972226 17.835938 14.685547 17.490366 14.685547 17.005859 C 14.685547 16.087832 15.543731 15.935172 16.59375 15.794922 L 17.099609 15.71875 z M 3 16 L 5 19 L 7 16 L 3 16 z "
    class="ColorScheme-Text"
    />
</svg>
